svgs/regular/trash-can-list.svg

<svg xmlns="http://www.w3.org/2000/svg" viewBox="0 0 640 512"><!--! Font Awesome Pro 6.6.0 by @fontawesome - https://fontawesome.com License - https://fontawesome.com/license (Commercial License) Copyright 2024 Fonticons, Inc. --><path d="M161.1 48l93.7 0c2.7 0 5.2 1.3 6.7 3.6l19 28.4-145 0 19-28.4c1.5-2.2 4-3.6 6.7-3.6zM338.2 80L301.5 24.9C291.1 9.4 273.6 0 254.9 0L161.1 0c-18.7 0-36.2 9.4-46.6 24.9L77.8 80 32 80l-8 0C10.7 80 0 90.7 0 104s10.7 24 24 24l8 0 0 304c0 44.2 35.8 80 80 80l192 0c44.2 0 80-35.8 80-80l0-304 8 0c13.3 0 24-10.7 24-24s-10.7-24-24-24l-8 0-45.8 0zM336 128l0 304c0 17.7-14.3 32-32 32l-192 0c-17.7 0-32-14.3-32-32l0-304 256 0zM160 176c-8.8 0-16 7.2-16 16l0 208c0 8.8 7.2 16 16 16s16-7.2 16-16l0-208c0-8.8-7.2-16-16-16zm96 0c-8.8 0-16 7.2-16 16l0 208c0 8.8 7.2 16 16 16s16-7.2 16-16l0-208c0-8.8-7.2-16-16-16zm216-48c-13.3 0-24 10.7-24 24s10.7 24 24 24l144 0c13.3 0 24-10.7 24-24s-10.7-24-24-24l-144 0zm0 128c-13.3 0-24 10.7-24 24s10.7 24 24 24l112 0c13.3 0 24-10.7 24-24s-10.7-24-24-24l-112 0zM448 408c0 13.3 10.7 24 24 24l48 0c13.3 0 24-10.7 24-24s-10.7-24-24-24l-48 0c-13.3 0-24 10.7-24 24z"/></svg>

<svg xmlns="http://www.w3.org/2000/svg" viewBox="0 0 640 512"><!--! Font Awesome Pro 6.4.0 by @fontawesome - https://fontawesome.com License - https://fontawesome.com/license (Commercial License) Copyright 2023 Fonticons, Inc. --><path d="M161.1 48h93.7c2.7 0 5.2 1.3 6.7 3.6l19 28.4h-145l19-28.4c1.5-2.2 4-3.6 6.7-3.6zM338.2 80L301.5 24.9C291.1 9.4 273.6 0 254.9 0H161.1c-18.7 0-36.2 9.4-46.6 24.9L77.8 80H32 24C10.7 80 0 90.7 0 104s10.7 24 24 24h8V432c0 44.2 35.8 80 80 80H304c44.2 0 80-35.8 80-80V128h8c13.3 0 24-10.7 24-24s-10.7-24-24-24h-8H338.2zM336 128V432c0 17.7-14.3 32-32 32H112c-17.7 0-32-14.3-32-32V128H336zM160 176c-8.8 0-16 7.2-16 16V400c0 8.8 7.2 16 16 16s16-7.2 16-16V192c0-8.8-7.2-16-16-16zm96 0c-8.8 0-16 7.2-16 16V400c0 8.8 7.2 16 16 16s16-7.2 16-16V192c0-8.8-7.2-16-16-16zm216-48c-13.3 0-24 10.7-24 24s10.7 24 24 24H616c13.3 0 24-10.7 24-24s-10.7-24-24-24H472zm0 128c-13.3 0-24 10.7-24 24s10.7 24 24 24H584c13.3 0 24-10.7 24-24s-10.7-24-24-24H472zM448 408c0 13.3 10.7 24 24 24h48c13.3 0 24-10.7 24-24s-10.7-24-24-24H472c-13.3 0-24 10.7-24 24z"/></svg>
